!!!OTL: Xiashui bannao haozi 5.Kuaierliulu haozi
!!!ARE: Asia, China,ÿSichuan, Chongqing
!! Hanzu minge gailun, 82
!!!SCT: C1713D
!!!YEM: Copyright 1995, estate of Helmut Schaffrath.
**kern
*ICvox
*Ivox
!! Mixed meters:  2/4; 3/4
*M2/4
*k[f#c#g#]
*A:
{8b
24a
24b
24a
4f#
4f#}
=1
{8.cc#
32b
32a
4f#}
=2
{16.ff#
32ee
32cc#
32ee
32ff#
32ee
4ff#
=3
24ee
24cc#
24ee
8cc#
4f#}
=4
{16.ff#
32ee
8cc#
32ee
32cc#
8.b
=5
8cc#
16b
16a
4f#}
=6
{8b
8f#
16.ee
32cc#
8b
=7
16.cc#
32b
8a
4f#}
=8
{16ff#
16ee
8cc#
32ee
32b
16cc#
32b
32a
16b
=9
16.cc#
32b
8a
4f#}
=10
{2b
=11
2f#
=12
2f#
=13
2r}
==
!!!AGN: Haozi, Chuanjiang chuanfu haozi
!!!AMT: irregular
!!!AIN: vox
!!!EED: Helmut Schaffrath
!!!EEV: 1.0
*-
